X:1
T:I Am Anchored Safe
T:I Am Anchored Safe
T:William Howard Doane
T:Frances Jane (Fanny) Crosby, 1903
T:Public Domain Courtesy of the Cyber Hymnal™
T:Public Domain Courtesy of the Cyber Hymnal™
C:William Howard Doane
Z:Public Domain
Z:Courtesy of the Cyber Hymnal™
%%score ( 1 2 ) ( 3 4 )
L:1/8
Q:1/4=105
M:4/4
K:Db
V:1 treble 
V:2 treble 
V:3 bass 
V:4 bass 
V:1
 [DF][EG] | [FA]2 [FA]>[FA] [FA]2 [=E=G][FA] | [Fd]6 [FA][GB] | [FA]2 [DF][DF] [FA][DA][CG][DF] | %4
w: 1.~There is|joy in my heart all the|day, And the|song that I sing is ev- er|
w: 2.~There is|peace in my heart all the|day, For I|know my Re- deem- er still is|
w: 3.~There is|love in my heart all the|day, And the|law of the Lord is my de-|
 [CE]6 [DF][EG] | [FA]2 [FA]>[FA] [FA]2 [=E=G][FA] | [GB]2 [Gc]2 !fermata![Fd]2 [DA][=DB] | %7
w: new; I have|an- chored my hope on the|Rift- ed Rock, And its|
w: near; O He|tells me of rest, that shall|yet be mine, And His|
w: light; And a|man- sion e- ter- nal is|wait- ing me, In the|
 [Ec]2 [EB][Ec] [Ed][Ed] [D=G]2 | A6 ||"^Refrain" [DF][EG] | [FA] [FA]4- [FA][=E=G][FA] | %11
w: clear flow- ing wa- ter I|view.|||
w: voice in my spir- it I|hear.|I am|an- chored, * and se-|
w: home that with glo- ry is|bright.|||
 [Fd]6 [Fd][Ac] | ([Ac][GB])[GB][GB] [Gd][Gd][Ac][GB] | A6 [Ec][Fd] | [Ge] [Ge]4- [Ge][Fd][Ge] | %15
w: ||||
w: cure, And I|dread * not the storm- y waves that|roll, I am|an- chored * firm and|
w: ||||
 [Af]6 [Ae][Ad] | [Gd][Gd][Ac][GB] [FA]2 [Gd][Gc] | [Fd]6 |] %18
w: |||
w: sure, Safe- ly|an- chored on the Rock of my|soul.|
w: |||
V:2
 x2 | x8 | x8 | x8 | x8 | x8 | x8 | x8 | (C2 ED C2) || x2 | x8 | x8 | x8 | (F2 DG F2) x2 | x8 | %15
 x8 | x8 | x6 |] %18
V:3
 [D,A,][D,A,] | [D,D]2 [D,D]>[D,D] [D,D]2 [D,B,][D,D] | %2
 [D,A,]2 [D,A,]>[D,A,] [D,A,]2 [D,A,][D,A,] | [D,D]2 [D,A,][D,A,] [D,D][F,D][E,A,][D,A,] | %4
 [A,,A,]2 [A,,A,][A,,A,] [A,,A,]2 [D,A,][D,A,] | [D,D]2 [D,D]>[D,D] [D,D]2 [D,B,][D,D] | %6
 [G,D]2 [E,A,]2 !fermata![D,A,]2 [F,A,][F,A,] | [E,A,]2 [E,=G,][E,A,] [E,B,][E,B,] [E,B,]2 | %8
 (A,E, G,F, [A,,E,]2) || z2 | z2 [D,D][D,D] [D,D][D,D] z2 | z2 [D,A,][D,A,] [D,A,]2 [D,A,][F,D] | %12
 [G,D]2 [G,D][G,D] [G,B,][G,B,][G,C][G,D] | ([D,D]2 [F,A,][E,C] [D,D]2) z2 | %14
 z2 [A,C][A,C] [A,C][A,C] z2 | ([D,D][D,D] [D,D]2 [E,C][F,D])[G,B,][G,B,] | %16
 [G,C][G,B,][G,C][G,D] [A,D]2 [A,,E][A,,A,] | [D,A,]6 |] %18
V:4
 x2 | x8 | x8 | x8 | x8 | x8 | x8 | x8 | A,,2 A,,2 x2 || x2 | x8 | x8 | x8 | x8 | x8 | x8 | x8 | %17
 x6 |] %18

